T: Humours Of Bantry, The
M: 6/8
L: 1/8
K: Gmaj
gfg e/f/ge | dBG AGE | DEG AGA | BGB AGE |gfg e/f/ge | dBG AGE | DEG AGA | BGG G2 :|edd gdd | edd gdB | def gfg | edB AGE |[1 gfg e/f/ge | dBG AGE | DGG A/B/cA | BGG G2 :|[2 gfg aga | bge edB | GFG A/B/cA | BGG G2 |]
